report_00007_2020-12-11T15:55:29.892Z/meta/score/comparison/line/7_vs_8.svg

<svg width="640" height="500" xmlns="http://www.w3.org/2000/svg" xmlns:xlink="http://www.w3.org/1999/xlink"><path fill="#fff" d="M0 0h640v500H0z"/><defs><path id="d" stroke-width=".222" stroke="currentColor" d="M-1-1h2v2h-2z"/><path id="b" stroke-width=".222" stroke="currentColor" d="M0-1.33l-1.33 2h2.66z"/><path id="f" stroke-width=".222" stroke="currentColor" d="M0 1.33L1.265.411.782-1.067l-1.564-.009-.483 1.487z"/><use xlink:href="#b" id="c" stroke="currentColor" transform="rotate(180)"/><use xlink:href="#d" id="e" stroke="currentColor" transform="rotate(45)"/><circle id="a" stroke-width=".222" stroke="currentColor" cx="0" cy="0" r="1"/></defs><g fill="none" color="#000" stroke="currentColor"><path stroke="#000" d="M62.2 414.5h9m543.8 0h-9"/><text transform="translate(53.9 418.4)" stroke="none" fill="#000" font-family="Arial" font-size="12" text-anchor="end"><tspan>0.7</tspan></text></g><g fill="none" color="#000" stroke="currentColor"><path stroke="#000" d="M62.2 365.4h9m543.8 0h-9"/><text transform="translate(53.9 369.3)" stroke="none" fill="#000" font-family="Arial" font-size="12" text-anchor="end"><tspan>0.71</tspan></text></g><g fill="none" color="#000" stroke="currentColor"><path stroke="#000" d="M62.2 316.4h9m543.8 0h-9"/><text transform="translate(53.9 320.3)" stroke="none" fill="#000" font-family="Arial" font-size="12" text-anchor="end"><tspan>0.72</tspan></text></g><g fill="none" color="#000" stroke="currentColor"><path stroke="#000" d="M62.2 267.3h9m543.8 0h-9"/><text transform="translate(53.9 271.2)" stroke="none" fill="#000" font-family="Arial" font-size="12" text-anchor="end"><tspan>0.73</tspan></text></g><g fill="none" color="#000" stroke="currentColor"><path stroke="#000" d="M62.2 218.3h9m543.8 0h-9"/><text transform="translate(53.9 222.2)" stroke="none" fill="#000" font-family="Arial" font-size="12" text-anchor="end"><tspan>0.74</tspan></text></g><g fill="none" color="#000" stroke="currentColor"><path stroke="#000" d="M62.2 169.2h9m543.8 0h-9"/><text transform="translate(53.9 173.1)" stroke="none" fill="#000" font-family="Arial" font-size="12" text-anchor="end"><tspan>0.75</tspan></text></g><g fill="none" color="#000" stroke="currentColor"><path stroke="#000" d="M62.2 120.2h9m543.8 0h-9"/><text transform="translate(53.9 124.1)" stroke="none" fill="#000" font-family="Arial" font-size="12" text-anchor="end"><tspan>0.76</tspan></text></g><g fill="none" color="#000" stroke="currentColor"><path stroke="#000" d="M62.2 71.1h9m543.8 0h-9"/><text transform="translate(53.9 75)" stroke="none" fill="#000" font-family="Arial" font-size="12" text-anchor="end"><tspan>0.77</tspan></text></g><g fill="none" color="#000" stroke="currentColor"><path stroke="#000" d="M62.2 22.1h9m543.8 0h-9"/><text transform="translate(53.9 26)" stroke="none" fill="#000" font-family="Arial" font-size="12" text-anchor="end"><tspan>0.78</tspan></text></g><g fill="none" color="#000" stroke="currentColor"><path stroke="#000" d="M62.2 446v-9m0-418.9v9"/><text transform="translate(62.2 467.9)" stroke="none" fill="#000" font-family="Arial" font-size="12" text-anchor="middle"><tspan>0</tspan></text></g><g fill="none" color="#000" stroke="currentColor"><path stroke="#000" d="M118 446v-9m0-418.9v9"/><text transform="translate(118 467.9)" stroke="none" fill="#000" font-family="Arial" font-size="12" text-anchor="middle"><tspan>10</tspan></text></g><g fill="none" color="#000" stroke="currentColor"><path stroke="#000" d="M173.9 446v-9m0-418.9v9"/><text transform="translate(173.9 467.9)" stroke="none" fill="#000" font-family="Arial" font-size="12" text-anchor="middle"><tspan>20</tspan></text></g><g fill="none" color="#000" stroke="currentColor"><path stroke="#000" d="M229.7 446v-9m0-418.9v9"/><text transform="translate(229.7 467.9)" stroke="none" fill="#000" font-family="Arial" font-size="12" text-anchor="middle"><tspan>30</tspan></text></g><g fill="none" color="#000" stroke="currentColor"><path stroke="#000" d="M285.6 446v-9m0-418.9v9"/><text transform="translate(285.6 467.9)" stroke="none" fill="#000" font-family="Arial" font-size="12" text-anchor="middle"><tspan>40</tspan></text></g><g fill="none" color="#000" stroke="currentColor"><path stroke="#000" d="M341.4 446v-9m0-418.9v9"/><text transform="translate(341.4 467.9)" stroke="none" fill="#000" font-family="Arial" font-size="12" text-anchor="middle"><tspan>50</tspan></text></g><g fill="none" color="#000" stroke="currentColor"><path stroke="#000" d="M397.2 446v-9m0-418.9v9"/><text transform="translate(397.2 467.9)" stroke="none" fill="#000" font-family="Arial" font-size="12" text-anchor="middle"><tspan>60</tspan></text></g><g fill="none" color="#000" stroke="currentColor"><path stroke="#000" d="M453.1 446v-9m0-418.9v9"/><text transform="translate(453.1 467.9)" stroke="none" fill="#000" font-family="Arial" font-size="12" text-anchor="middle"><tspan>70</tspan></text></g><g fill="none" color="#000" stroke="currentColor"><path stroke="#000" d="M508.9 446v-9m0-418.9v9"/><text transform="translate(508.9 467.9)" stroke="none" fill="#000" font-family="Arial" font-size="12" text-anchor="middle"><tspan>80</tspan></text></g><g fill="none" color="#000" stroke="currentColor"><path stroke="#000" d="M564.7 446v-9m0-418.9v9"/><text transform="translate(564.7 467.9)" stroke="none" fill="#000" font-family="Arial" font-size="12" text-anchor="middle"><tspan>90</tspan></text></g><path stroke="#000" d="M62.2 18.1V446H615V18.1H62.2z" fill="none" color="#000"/><text transform="translate(279.8 485.9)" stroke="none" fill="#000" font-family="Arial" font-size="12" text-anchor="end" color="#000"><tspan>pages+cached+noexternal+nosvg</tspan></text><path stroke="#9400D3" d="M288.1 482h42.2M62.2 203l5.6 87.7 5.6 14 5.6-.5 5.5-13.3 5.6.9 5.6-7.5 5.6 21.2 5.6-1 5.6-100.9 5.5 88.1 5.6 20.4 5.6 7.3 5.6-117.8 5.6 103.2 5.6-20.3 5.5 19.9 5.6-101.6 5.6.6 5.6 159.9 5.6-58.4 5.6 131.6 5.5-145.4 5.6-87.6 5.6 232.6 5.6-144.2 5.6 12.9 5.6-13.2 5.5-88.1 5.6 87 5.6-6.5 5.6 153.8 5.6-146.3 5.6-88.6 5.6-.6 5.5 128.2 5.6-.2 5.6-25.5 5.6 131.5 5.6-132 5.6.4 5.5-.3 5.6-100.6 5.6 101.2 5.6-20.5 5.6-79.6 5.6-1.8 5.5.4 5.6 81 5.6.8 5.6 79.4 5.6-80.2 5.6 6.9 5.5-6.1 5.6-81.7 5.6 87.2 5.6.3 5.6-6.2 5.6 19.9 5.5-1.2 5.6 2.1 5.6-1.7 5.6 132.6 5.6-132.4h5.6l5.5-13 5.6-8.1 5.6 54 5.6-33.1 5.6-98.9 5.6 78.4 5.6 20.3 5.5.6 5.6.4 5.6-13.6 5.6.2 5.6-.9 5.6-5.9 5.5 152.8 5.6-133.2 5.6-19.9 5.6-81.8 5.6.8 5.6-.2 5.5 101.4h5.6l5.6-20.2 5.6 152.3 5.6-144.8 5.6-88 5.5 134.6 5.6-55 5.6-81 5.6 101.8 5.6-101.2 5.6 88.8 5.5-87.4 5.6 99.5 5.6.2 5.6-20" fill="none" color="#000"/><text transform="translate(579.3 485.9)" stroke="none" fill="#000" font-family="Arial" font-size="12" text-anchor="end" color="#000"><tspan>pages+cached+noexternal+noimg</tspan></text><path stroke="#009E73" d="M587.6 482h42.2M62.2 183.8l5.6-146.3 5.6 68.5L79 28.4l5.5 178.5 5.6 4.4 5.6 20.1L101.3 37l5.6 166.9 5.6 3.7 5.5 3.7 5.6-181.8 5.6 175.2 5.6-18.2 5.6-156.6 5.6 176.5 5.5-1 5.6-1.7 5.6 4.8 5.6-21.1 5.6-8.3 5.6 26.6 5.5-91.3 5.6 91.2L196.2 37l5.6 168.1 5.6-.7 5.6 25 5.5-23.5 5.6 5.1 5.6-4.1 5.6-72.8 5.6-107.8 5.6 171.8 5.6 29.5L257.6 39l5.6 94.6 5.6 66.3 5.6 31 5.6-26.1 5.6-99.2 5.5 2.5 5.6 77.6 5.6 21.3 5.6-29.6 5.6-92.4 5.6 111 5.5-55.5 5.6 63.3 5.6-23.2 5.6 29.1L347 39.1l5.6 140.2 5.5 52.9 5.6-53.7 5.6-58 5.6 8.7 5.6 82.3 5.6-173.2 5.5 158.4 5.6 10.9 5.6-75 5.6-18.1 5.6-9 5.6 106.4 5.5-26.5 5.6-54.7 5.6-78.2 5.6 282.4 5.6-146.8 5.6 11.5 5.6 4.5 5.5-100.2 5.6-18.5 5.6 118.8L481 36.3l5.6 171 5.6-2.5 5.5-3.7 5.6-163.6 5.6 167.2 5.6 25.9 5.6-51.2 5.6 26 5.5-100.6 5.6 8 5.6 30.3 5.6-2.5 5.6-34.1 5.6-77.4 5.5 178.1 5.6-2 5.6-119.7 5.6 124.1 5.6-4.4 5.6 26.5 5.5-203.2 5.6 179.6 5.6-6.1 5.6-71.4" fill="none" color="#000"/><g fill="none" color="#000" stroke="currentColor"><path stroke="#000" d="M62.2 18.1V446H615V18.1H62.2z"/></g></svg>

<?xml version="1.0" encoding="utf-8"  standalone="no"?>
<svg 
 width="640" height="500"
 viewBox="0 0 640 500"
 xmlns="http://www.w3.org/2000/svg"
 xmlns:xlink="http://www.w3.org/1999/xlink"
>

<title>Gnuplot</title>
<desc>Produced by GNUPLOT 5.4 patchlevel 0 </desc>

<g id="gnuplot_canvas">

<rect x="0" y="0" width="640" height="500" fill="#ffffff"/>
<defs>

	<circle id='gpDot' r='0.5' stroke-width='0.5' stroke='currentColor'/>
	<path id='gpPt0' stroke-width='0.222' stroke='currentColor' d='M-1,0 h2 M0,-1 v2'/>
	<path id='gpPt1' stroke-width='0.222' stroke='currentColor' d='M-1,-1 L1,1 M1,-1 L-1,1'/>
	<path id='gpPt2' stroke-width='0.222' stroke='currentColor' d='M-1,0 L1,0 M0,-1 L0,1 M-1,-1 L1,1 M-1,1 L1,-1'/>
	<rect id='gpPt3' stroke-width='0.222' stroke='currentColor' x='-1' y='-1' width='2' height='2'/>
	<rect id='gpPt4' stroke-width='0.222' stroke='currentColor' fill='currentColor' x='-1' y='-1' width='2' height='2'/>
	<circle id='gpPt5' stroke-width='0.222' stroke='currentColor' cx='0' cy='0' r='1'/>
	<use xlink:href='#gpPt5' id='gpPt6' fill='currentColor' stroke='none'/>
	<path id='gpPt7' stroke-width='0.222' stroke='currentColor' d='M0,-1.33 L-1.33,0.67 L1.33,0.67 z'/>
	<use xlink:href='#gpPt7' id='gpPt8' fill='currentColor' stroke='none'/>
	<use xlink:href='#gpPt7' id='gpPt9' stroke='currentColor' transform='rotate(180)'/>
	<use xlink:href='#gpPt9' id='gpPt10' fill='currentColor' stroke='none'/>
	<use xlink:href='#gpPt3' id='gpPt11' stroke='currentColor' transform='rotate(45)'/>
	<use xlink:href='#gpPt11' id='gpPt12' fill='currentColor' stroke='none'/>
	<path id='gpPt13' stroke-width='0.222' stroke='currentColor' d='M0,1.330 L1.265,0.411 L0.782,-1.067 L-0.782,-1.076 L-1.265,0.411 z'/>
	<use xlink:href='#gpPt13' id='gpPt14' fill='currentColor' stroke='none'/>
	<filter id='textbox' filterUnits='objectBoundingBox' x='0' y='0' height='1' width='1'>
	  <feFlood flood-color='#FFFFFF' flood-opacity='1' result='bgnd'/>
	  <feComposite in='SourceGraphic' in2='bgnd' operator='atop'/>
	</filter>
	<filter id='greybox' filterUnits='objectBoundingBox' x='0' y='0' height='1' width='1'>
	  <feFlood flood-color='lightgrey' flood-opacity='1' result='grey'/>
	  <feComposite in='SourceGraphic' in2='grey' operator='atop'/>
	</filter>
</defs>
<g fill="none" color="#FFFFFF" stroke="black" stroke-width="1.00" stroke-linecap="butt" stroke-linejoin="miter">
</g>
<g fill="none" color="black" stroke="currentColor" stroke-width="1.00" stroke-linecap="butt" stroke-linejoin="miter">
	<path stroke='black'  d='M62.2,414.5 L71.2,414.5 M615.0,414.5 L606.0,414.5  '/>	<g transform="translate(53.9,418.4)" stroke="none" fill="black" font-family="Arial" font-size="12.00"  text-anchor="end">
		<text><tspan font-family="Arial" > 0.7</tspan></text>
	</g>
</g>
<g fill="none" color="black" stroke="currentColor" stroke-width="1.00" stroke-linecap="butt" stroke-linejoin="miter">
	<path stroke='black'  d='M62.2,365.4 L71.2,365.4 M615.0,365.4 L606.0,365.4  '/>	<g transform="translate(53.9,369.3)" stroke="none" fill="black" font-family="Arial" font-size="12.00"  text-anchor="end">
		<text><tspan font-family="Arial" > 0.71</tspan></text>
	</g>
</g>
<g fill="none" color="black" stroke="currentColor" stroke-width="1.00" stroke-linecap="butt" stroke-linejoin="miter">
	<path stroke='black'  d='M62.2,316.4 L71.2,316.4 M615.0,316.4 L606.0,316.4  '/>	<g transform="translate(53.9,320.3)" stroke="none" fill="black" font-family="Arial" font-size="12.00"  text-anchor="end">
		<text><tspan font-family="Arial" > 0.72</tspan></text>
	</g>
</g>
<g fill="none" color="black" stroke="currentColor" stroke-width="1.00" stroke-linecap="butt" stroke-linejoin="miter">
	<path stroke='black'  d='M62.2,267.3 L71.2,267.3 M615.0,267.3 L606.0,267.3  '/>	<g transform="translate(53.9,271.2)" stroke="none" fill="black" font-family="Arial" font-size="12.00"  text-anchor="end">
		<text><tspan font-family="Arial" > 0.73</tspan></text>
	</g>
</g>
<g fill="none" color="black" stroke="currentColor" stroke-width="1.00" stroke-linecap="butt" stroke-linejoin="miter">
	<path stroke='black'  d='M62.2,218.3 L71.2,218.3 M615.0,218.3 L606.0,218.3  '/>	<g transform="translate(53.9,222.2)" stroke="none" fill="black" font-family="Arial" font-size="12.00"  text-anchor="end">
		<text><tspan font-family="Arial" > 0.74</tspan></text>
	</g>
</g>
<g fill="none" color="black" stroke="currentColor" stroke-width="1.00" stroke-linecap="butt" stroke-linejoin="miter">
	<path stroke='black'  d='M62.2,169.2 L71.2,169.2 M615.0,169.2 L606.0,169.2  '/>	<g transform="translate(53.9,173.1)" stroke="none" fill="black" font-family="Arial" font-size="12.00"  text-anchor="end">
		<text><tspan font-family="Arial" > 0.75</tspan></text>
	</g>
</g>
<g fill="none" color="black" stroke="currentColor" stroke-width="1.00" stroke-linecap="butt" stroke-linejoin="miter">
	<path stroke='black'  d='M62.2,120.2 L71.2,120.2 M615.0,120.2 L606.0,120.2  '/>	<g transform="translate(53.9,124.1)" stroke="none" fill="black" font-family="Arial" font-size="12.00"  text-anchor="end">
		<text><tspan font-family="Arial" > 0.76</tspan></text>
	</g>
</g>
<g fill="none" color="black" stroke="currentColor" stroke-width="1.00" stroke-linecap="butt" stroke-linejoin="miter">
	<path stroke='black'  d='M62.2,71.1 L71.2,71.1 M615.0,71.1 L606.0,71.1  '/>	<g transform="translate(53.9,75.0)" stroke="none" fill="black" font-family="Arial" font-size="12.00"  text-anchor="end">
		<text><tspan font-family="Arial" > 0.77</tspan></text>
	</g>
</g>
<g fill="none" color="black" stroke="currentColor" stroke-width="1.00" stroke-linecap="butt" stroke-linejoin="miter">
	<path stroke='black'  d='M62.2,22.1 L71.2,22.1 M615.0,22.1 L606.0,22.1  '/>	<g transform="translate(53.9,26.0)" stroke="none" fill="black" font-family="Arial" font-size="12.00"  text-anchor="end">
		<text><tspan font-family="Arial" > 0.78</tspan></text>
	</g>
</g>
<g fill="none" color="black" stroke="currentColor" stroke-width="1.00" stroke-linecap="butt" stroke-linejoin="miter">
	<path stroke='black'  d='M62.2,446.0 L62.2,437.0 M62.2,18.1 L62.2,27.1  '/>	<g transform="translate(62.2,467.9)" stroke="none" fill="black" font-family="Arial" font-size="12.00"  text-anchor="middle">
		<text><tspan font-family="Arial" > 0</tspan></text>
	</g>
</g>
<g fill="none" color="black" stroke="currentColor" stroke-width="1.00" stroke-linecap="butt" stroke-linejoin="miter">
	<path stroke='black'  d='M118.0,446.0 L118.0,437.0 M118.0,18.1 L118.0,27.1  '/>	<g transform="translate(118.0,467.9)" stroke="none" fill="black" font-family="Arial" font-size="12.00"  text-anchor="middle">
		<text><tspan font-family="Arial" > 10</tspan></text>
	</g>
</g>
<g fill="none" color="black" stroke="currentColor" stroke-width="1.00" stroke-linecap="butt" stroke-linejoin="miter">
	<path stroke='black'  d='M173.9,446.0 L173.9,437.0 M173.9,18.1 L173.9,27.1  '/>	<g transform="translate(173.9,467.9)" stroke="none" fill="black" font-family="Arial" font-size="12.00"  text-anchor="middle">
		<text><tspan font-family="Arial" > 20</tspan></text>
	</g>
</g>
<g fill="none" color="black" stroke="currentColor" stroke-width="1.00" stroke-linecap="butt" stroke-linejoin="miter">
	<path stroke='black'  d='M229.7,446.0 L229.7,437.0 M229.7,18.1 L229.7,27.1  '/>	<g transform="translate(229.7,467.9)" stroke="none" fill="black" font-family="Arial" font-size="12.00"  text-anchor="middle">
		<text><tspan font-family="Arial" > 30</tspan></text>
	</g>
</g>
<g fill="none" color="black" stroke="currentColor" stroke-width="1.00" stroke-linecap="butt" stroke-linejoin="miter">
	<path stroke='black'  d='M285.6,446.0 L285.6,437.0 M285.6,18.1 L285.6,27.1  '/>	<g transform="translate(285.6,467.9)" stroke="none" fill="black" font-family="Arial" font-size="12.00"  text-anchor="middle">
		<text><tspan font-family="Arial" > 40</tspan></text>
	</g>
</g>
<g fill="none" color="black" stroke="currentColor" stroke-width="1.00" stroke-linecap="butt" stroke-linejoin="miter">
	<path stroke='black'  d='M341.4,446.0 L341.4,437.0 M341.4,18.1 L341.4,27.1  '/>	<g transform="translate(341.4,467.9)" stroke="none" fill="black" font-family="Arial" font-size="12.00"  text-anchor="middle">
		<text><tspan font-family="Arial" > 50</tspan></text>
	</g>
</g>
<g fill="none" color="black" stroke="currentColor" stroke-width="1.00" stroke-linecap="butt" stroke-linejoin="miter">
	<path stroke='black'  d='M397.2,446.0 L397.2,437.0 M397.2,18.1 L397.2,27.1  '/>	<g transform="translate(397.2,467.9)" stroke="none" fill="black" font-family="Arial" font-size="12.00"  text-anchor="middle">
		<text><tspan font-family="Arial" > 60</tspan></text>
	</g>
</g>
<g fill="none" color="black" stroke="currentColor" stroke-width="1.00" stroke-linecap="butt" stroke-linejoin="miter">
	<path stroke='black'  d='M453.1,446.0 L453.1,437.0 M453.1,18.1 L453.1,27.1  '/>	<g transform="translate(453.1,467.9)" stroke="none" fill="black" font-family="Arial" font-size="12.00"  text-anchor="middle">
		<text><tspan font-family="Arial" > 70</tspan></text>
	</g>
</g>
<g fill="none" color="black" stroke="currentColor" stroke-width="1.00" stroke-linecap="butt" stroke-linejoin="miter">
	<path stroke='black'  d='M508.9,446.0 L508.9,437.0 M508.9,18.1 L508.9,27.1  '/>	<g transform="translate(508.9,467.9)" stroke="none" fill="black" font-family="Arial" font-size="12.00"  text-anchor="middle">
		<text><tspan font-family="Arial" > 80</tspan></text>
	</g>
</g>
<g fill="none" color="black" stroke="currentColor" stroke-width="1.00" stroke-linecap="butt" stroke-linejoin="miter">
	<path stroke='black'  d='M564.7,446.0 L564.7,437.0 M564.7,18.1 L564.7,27.1  '/>	<g transform="translate(564.7,467.9)" stroke="none" fill="black" font-family="Arial" font-size="12.00"  text-anchor="middle">
		<text><tspan font-family="Arial" > 90</tspan></text>
	</g>
</g>
<g fill="none" color="black" stroke="currentColor" stroke-width="1.00" stroke-linecap="butt" stroke-linejoin="miter">
</g>
<g fill="none" color="black" stroke="currentColor" stroke-width="1.00" stroke-linecap="butt" stroke-linejoin="miter">
	<path stroke='black'  d='M62.2,18.1 L62.2,446.0 L615.0,446.0 L615.0,18.1 L62.2,18.1 Z  '/></g>
<g fill="none" color="black" stroke="currentColor" stroke-width="1.00" stroke-linecap="butt" stroke-linejoin="miter">
</g>
	<g id="gnuplot_plot_1" ><title>pages+cached+noexternal+nosvg</title>
<g fill="none" color="black" stroke="currentColor" stroke-width="1.00" stroke-linecap="butt" stroke-linejoin="miter">
	<g transform="translate(279.8,485.9)" stroke="none" fill="black" font-family="Arial" font-size="12.00"  text-anchor="end">
		<text><tspan font-family="Arial" >pages+cached+noexternal+nosvg</tspan></text>
	</g>
</g>
<g fill="none" color="black" stroke="currentColor" stroke-width="1.00" stroke-linecap="butt" stroke-linejoin="miter">
	<path stroke='rgb(148,   0, 211)'  d='M288.1,482.0 L330.3,482.0 M62.2,203.0 L67.8,290.7 L73.4,304.7 L79.0,304.2 L84.5,290.9 L90.1,291.8
		L95.7,284.3 L101.3,305.5 L106.9,304.5 L112.5,203.6 L118.0,291.7 L123.6,312.1 L129.2,319.4 L134.8,201.6
		L140.4,304.8 L146.0,284.5 L151.5,304.4 L157.1,202.8 L162.7,203.4 L168.3,363.3 L173.9,304.9 L179.5,436.5
		L185.0,291.1 L190.6,203.5 L196.2,436.1 L201.8,291.9 L207.4,304.8 L213.0,291.6 L218.5,203.5 L224.1,290.5
		L229.7,284.0 L235.3,437.8 L240.9,291.5 L246.5,202.9 L252.1,202.3 L257.6,330.5 L263.2,330.3 L268.8,304.8
		L274.4,436.3 L280.0,304.3 L285.6,304.7 L291.1,304.4 L296.7,203.8 L302.3,305.0 L307.9,284.5 L313.5,204.9
		L319.1,203.1 L324.6,203.5 L330.2,284.5 L335.8,285.3 L341.4,364.7 L347.0,284.5 L352.6,291.4 L358.1,285.3
		L363.7,203.6 L369.3,290.8 L374.9,291.1 L380.5,284.9 L386.1,304.8 L391.6,303.6 L397.2,305.7 L402.8,304.0
		L408.4,436.6 L414.0,304.2 L419.6,304.2 L425.1,291.2 L430.7,283.1 L436.3,337.1 L441.9,304.0 L447.5,205.1
		L453.1,283.5 L458.7,303.8 L464.2,304.4 L469.8,304.8 L475.4,291.2 L481.0,291.4 L486.6,290.5 L492.2,284.6
		L497.7,437.4 L503.3,304.2 L508.9,284.3 L514.5,202.5 L520.1,203.3 L525.7,203.1 L531.2,304.5 L536.8,304.5
		L542.4,284.3 L548.0,436.6 L553.6,291.8 L559.2,203.8 L564.7,338.4 L570.3,283.4 L575.9,202.4 L581.5,304.2
		L587.1,203.0 L592.7,291.8 L598.2,204.4 L603.8,303.9 L609.4,304.1 L615.0,284.1  '/></g>
	</g>
	<g id="gnuplot_plot_2" ><title>pages+cached+noexternal+noimg</title>
<g fill="none" color="black" stroke="currentColor" stroke-width="1.00" stroke-linecap="butt" stroke-linejoin="miter">
	<g transform="translate(579.3,485.9)" stroke="none" fill="black" font-family="Arial" font-size="12.00"  text-anchor="end">
		<text><tspan font-family="Arial" >pages+cached+noexternal+noimg</tspan></text>
	</g>
</g>
<g fill="none" color="black" stroke="currentColor" stroke-width="1.00" stroke-linecap="butt" stroke-linejoin="miter">
	<path stroke='rgb(  0, 158, 115)'  d='M587.6,482.0 L629.8,482.0 M62.2,183.8 L67.8,37.5 L73.4,106.0 L79.0,28.4 L84.5,206.9 L90.1,211.3
		L95.7,231.4 L101.3,37.0 L106.9,203.9 L112.5,207.6 L118.0,211.3 L123.6,29.5 L129.2,204.7 L134.8,186.5
		L140.4,29.9 L146.0,206.4 L151.5,205.4 L157.1,203.7 L162.7,208.5 L168.3,187.4 L173.9,179.1 L179.5,205.7
		L185.0,114.4 L190.6,205.6 L196.2,37.0 L201.8,205.1 L207.4,204.4 L213.0,229.4 L218.5,205.9 L224.1,211.0
		L229.7,206.9 L235.3,134.1 L240.9,26.3 L246.5,198.1 L252.1,227.6 L257.6,39.0 L263.2,133.6 L268.8,199.9
		L274.4,230.9 L280.0,204.8 L285.6,105.6 L291.1,108.1 L296.7,185.7 L302.3,207.0 L307.9,177.4 L313.5,85.0
		L319.1,196.0 L324.6,140.5 L330.2,203.8 L335.8,180.6 L341.4,209.7 L347.0,39.1 L352.6,179.3 L358.1,232.2
		L363.7,178.5 L369.3,120.5 L374.9,129.2 L380.5,211.5 L386.1,38.3 L391.6,196.7 L397.2,207.6 L402.8,132.6
		L408.4,114.5 L414.0,105.5 L419.6,211.9 L425.1,185.4 L430.7,130.7 L436.3,52.5 L441.9,334.9 L447.5,188.1
		L453.1,199.6 L458.7,204.1 L464.2,103.9 L469.8,85.4 L475.4,204.2 L481.0,36.3 L486.6,207.3 L492.2,204.8
		L497.7,201.1 L503.3,37.5 L508.9,204.7 L514.5,230.6 L520.1,179.4 L525.7,205.4 L531.2,104.8 L536.8,112.8
		L542.4,143.1 L548.0,140.6 L553.6,106.5 L559.2,29.1 L564.7,207.2 L570.3,205.2 L575.9,85.5 L581.5,209.6
		L587.1,205.2 L592.7,231.7 L598.2,28.5 L603.8,208.1 L609.4,202.0 L615.0,130.6  '/></g>
	</g>
<g fill="none" color="#FFFFFF" stroke="rgb(  0, 158, 115)" stroke-width="2.00" stroke-linecap="butt" stroke-linejoin="miter">
</g>
<g fill="none" color="black" stroke="currentColor" stroke-width="2.00" stroke-linecap="butt" stroke-linejoin="miter">
</g>
<g fill="none" color="black" stroke="black" stroke-width="1.00" stroke-linecap="butt" stroke-linejoin="miter">
</g>
<g fill="none" color="black" stroke="currentColor" stroke-width="1.00" stroke-linecap="butt" stroke-linejoin="miter">
	<path stroke='black'  d='M62.2,18.1 L62.2,446.0 L615.0,446.0 L615.0,18.1 L62.2,18.1 Z  '/></g>
<g fill="none" color="black" stroke="currentColor" stroke-width="1.00" stroke-linecap="butt" stroke-linejoin="miter">
</g>
</g>
</svg>
